app/assets/img/style/sign_ico.svg

<?xml version="1.0" encoding="UTF-8"?>
<svg width="91px" height="91px" viewBox="0 0 91 91" version="1.1" xmlns="http://www.w3.org/2000/svg" xmlns:xlink="http://www.w3.org/1999/xlink">
    <!-- Generator: Sketch 57.1 (83088) - https://sketch.com -->
    <title>Fill 32</title>
    <desc>Created with Sketch.</desc>
    <g id="Page-1" stroke="none" stroke-width="1" fill="none" fill-rule="evenodd">
        <g id="9.7”-iPad" transform="translate(-157.000000, -1658.000000)" fill="#0A0B09">
            <g id="Group-35" transform="translate(31.000000, 1565.000000)">
                <g id="Group-34" transform="translate(91.000000, 67.038000)">
                    <path d="M103.4303,93.9999 L103.4303,108.8809 L43.2313,108.8809 L43.2313,33.6319 L70.9313,33.6319 C86.5653,33.6319 80.8553,56.2069 80.8553,56.2069 C80.8553,56.2069 89.5603,53.8179 96.1593,55.7049 L103.5033,48.2699 C95.1703,37.7119 81.8213,26.1069 74.0433,26.1069 L35.7063,26.1069 L35.7063,116.4059 L110.9553,116.4059 L110.9553,86.3799 L103.4303,93.9999 Z M126.0053,60.4389 L96.2873,90.5239 L84.2393,78.4759 L113.9573,48.3989 L126.0053,60.4389 Z M80.6533,82.4109 L92.3453,94.0919 L76.8703,97.5929 L80.6533,82.4109 Z M54.5183,97.5929 L69.5683,97.5929 L69.5683,90.0679 L54.5183,90.0679 L54.5183,97.5929 Z" id="Fill-32"></path>
                </g>
            </g>
        </g>
    </g>
</svg>

<svg height="91" viewBox="0 0 91 91" width="91" xmlns="http://www.w3.org/2000/svg"><path d="m103.4303 93.9999v14.881h-60.199v-75.249h27.7c15.634 0 9.924 22.575 9.924 22.575s8.705-2.389 15.304-.502l7.344-7.435c-8.333-10.558-21.682-22.163-29.46-22.163h-38.337v90.299h75.249v-30.026zm22.575-33.561-29.718 30.085-12.048-12.048 29.718-30.077zm-45.352 21.972 11.692 11.681-15.475 3.501zm-26.135 15.182h15.05v-7.525h-15.05z" fill="#0a0b09" fill-rule="evenodd" transform="translate(-35 -25.962)"/></svg>
